X:1
T:Beati omnes qui timent Dominum
T:Beati omnes qui timent Dominum
T:Beati omnes qui timent Dominum
T:Motet à 3 (LV 553) adapted for Woodwind Trio based on a transcription by Arnold den Teuling 
T:Orlando di Lasso (1532-1594)
T:Arrangement by Felix Scharpf
T:twoflutes 2019 / Felix Scharpf / https://commons.wikimedia.org/wiki/File:Orlande_de_Lassus.jpg
T:twoflutes 2019 / Felix Scharpf / https://commons.wikimedia.org/wiki/File:Orlande_de_Lassus.jpg
T:twoflutes 2019 / Felix Scharpf / https://commons.wikimedia.org/wiki/File:Orlande_de_Lassus.jpg
T:twoflutes 2019 / Felix Scharpf / https://commons.wikimedia.org/wiki/File:Orlande_de_Lassus.jpg
T:twoflutes 2019 / Felix Scharpf / https://commons.wikimedia.org/wiki/File:Orlande_de_Lassus.jpg
T:twoflutes 2019 / Felix Scharpf / https://commons.wikimedia.org/wiki/File:Orlande_de_Lassus.jpg
T:twoflutes 2019 / Felix Scharpf / https://commons.wikimedia.org/wiki/File:Orlande_de_Lassus.jpg
C:Orlando di Lasso (1532-1594) transcription by Arnold den Teuling
Z:twoflutes 2019 / Felix Scharpf / https://commons.wikimedia.org/wiki/File:Orlande_de_Lassus.jpg
%%score [ 1 2 3 ]
L:1/8
Q:1/2=90
M:4/2
K:G
V:1 treble nm="Oboe" snm="Ob."
V:2 treble transpose=-5 nm="Altflöte" snm="Afl."
V:3 bass nm="Fagott" snm="Fgt."
V:1
 z8!p! (d8- | d8 B8 | A8 B8) | (e8 d6 cB | A8 B4)!mp! (B4 | d8) (d6 e2 | f2 g2 a4 d6) (d2 | %7
 G4 B4) (B4 d4- | d2 ^cB c4 d6)!mf! d2 | A8 z8 | z8 z4 (B4 | d6 d2 ^c4 d4 | e4 c4 B8) | B8 z8 | %14
 z16 | z4 (d4 c2 B2 A2 G2 | A2 B2 c4 B4) d4- | d2 (d2 B4 c4 B2 c2 | d2 e2 f2 g4 fe f4 | g8) (e8 | %20
 c4 d4 =f4 e4- | e2 d2) (d6 ^cB c4 | d16) | z4 (B4 e2 d2 e2 f2 | g4 c4 B8) | (g8 e4 c4 | %26
 g4 G4 B6 c2 | d4 A4) z4 (d4- | d4 B4 d8 | c4 e6 d2 c4 | B4) (g6 fe d4 | e4 f4) (B2 c2 d2 B2 | %32
 c2 d2 e6 ^d^c d4 | e16- | e8) z8 | z16 | z16 | z4 (d6 d2 c4 | B8 B8) | z4 (g6 g2 f4 | e4 ^c4) z8 | %41
 z16 | z16 | z4 (d4 a4 e4 | g8 f4 e4- | e2) (e2 e4 d4 G4 | d4 A4) (=f8 | e4 c4 B4) (e4- | %48
 e2 d2 c6 B2 B2 AG | A8 B4) B4- | B4 (.B4 .B4 .B4 | .B4) (b6 a2 g4- | g2 f2 e4 e4)!>(! (c4- | %53
 c2 B2[Q:1/2=75]"_poco rit." A6[Q:1/2=55] ^GF G4 |!mp! !fermata!A12)!>)! x4 || %55
[Q:1/2=90] z8 z4!mf! (e4- | e4 d2 c2 =f4 e4- | e2 d2 c2 B2 c4 e4- | e4 d6 ^cB c4 | d4) (a8 g2 f2 | %60
 b8 a2 g2 f2 e2 | f4 a8 g4- | g2 fe f4 B4) (g4- | g4 g4 f4 d2 e2 | f2 g2 a4 f8) | (g8 e8 | %66
 d8 ^c4 c4 | d8) (B4 c2 B2 | c2 d2 e6 d2 d2 ef | g6 g2 e8) | z16 | z4 (g8 g4 | f4 b4 a4 d4 | %73
 d12) (d4 | ^c4 d4 e8 | d16) | z16 | (B8 c6 B2 | c8 B8 | e4 g8 =f4 | e4 A4) z4 (d4- | d4 d4 B4 B4 | %82
 c4 B4) z4 (G2 A2 | B2 c2 d2 B2 c4 B4 | d8 G8) | z4 (d2 e2 f2 g2 a2 f2 | g2) (G2 B2 c2 d6 d2 | %87
 e4 c4) z4 (G2 A2 | B2 c2 d2 B2 c4 B4 | A8 B4) (B4 | e6 g2 f4 B4- | B2 c2 A4 d6) (d2 | d4 e8 A4 | %93
 d8 ^c8- | c8) (e8- | e4 B4 d6 cB | A4) (A2 B2 c2 d2 e2 f2 | g4 e6 d2 (d4- | d4 ^c4 d8)) | %99
 z4 (A4 e6 g2 | f4 B6 (c2 A4 | d6)) (d2 d4 e4- | e4 A4 d8 | ^c16) | (e12 B4 | %105
 d6 cB A4)!mf!!>(! (A2 B2 | c2 d2 e2 f2 g4 e4- | e2 d2[Q:1/2=60] d8[Q:1/2=50] ^c4 | %108
!p! !fermata!d12)!>)! x4 |] %109
V:2
[K:C]!p! (G16 | E8 G8) | z4 (G8 c4- | c4) (B2 A2 c2 B2 c4- | c2 BA B4 c4)!mp! (c4 | %5
 e6 d2 c2 B2 e4 | d2 c2 B2 A2 B4) (e4- | e2 d2 c2 BA G2 A2 B2 G2 | A6 A2 G8) | z4!mf! (B4 d6 d2 | %10
 ^c4 d4 e4 c4 | B8 B8) | z4 (d4 c2 B2 A2 G2 | A2 B2 c4 B8- | B8) (d6 d2 | B6 AG A4 A4- | %16
 A2) (G2 A2 B2 c2 d2 e4 | c6 B2 A2 B2 c2 d2 | e8 d8) | z4 (c8 c4 | d12 c4 | B6 AG A8 | G8) (B8 | %23
 c8 c8 | A8) z4 (c4 | A4 F4 c4 d4 | e6 d2 c8 | B16) | (c12 B4 | d8 c4 A4- | A2 G2 F4 E4 c4- | %31
 c2 BA G4) z4 (e4 | d2 c2 c2 BA B8 | A8) z4 (c4- | c4 c4 c6 c2 | A4 c6 d2 e4 | %36
 c4) (G2 A2 B2 c2 d4- | d2 ^cB c4 d8) | z4 (c6 c2 B4 | A8 G4 G4 | d4 A4) (c8 | B4 d8 d4 | %42
 e8 c4 A4- | A4) (e4 B4 d4 | A4 e4 d4 f4- | f4 c4) z4 (A4 | e4 B4 d8 | c8 c8) | (f4 d6 c2 c4- | %49
 c2 BA B4 c8) | G12 (G4 | .c4 .c4 .c4) (F2 G2 | A2 B2 c4 (3F6 G2 A4 |!>(! D8 E8 | %54
!mp! !fermata!D12)!>)! x4 ||"^a tempo"!mf! d16 | d16 | z4 (A8 G2 F2 | _B8 A8 | %59
 G2) (A2 B2 c2 d2 B2 e4- | e4 d2 c2 B4) (d4- | d4 c2 B2 e8 | d8 c8 | e12) (e4 | d4 B4 d4 e4- | %65
 e4 c6 A2 d4- | d2 ^cB c4 d8) | z4 (B4 c8 | A8 c4 B4 | A8) (c8- | c4 c4 B4 e4 | d4 (f4) e6 dc | %72
 d4 c4 B4 e4- | e4) (e4 d4 c4 | A4 e4 d2 c2 c2 BA | c4 B4) (e8 | A4 c6 BA B4 | c8) z4 (A4- | %78
 A4 c6 B2 c4 | c4) (A2 B2 c2 A2 d4- | d4 B4 c4 B4 | e8) z4 (c4- | c4 c4 A4 A4) | %83
 (c2 d2 e2 c2 d4 G4) | z8 z4 (A2 B2 | c2 d2 e2 c2 d4 B4 | A4 G4) z8 | z4 (D2 E2 F2 G2 A2 F2 | %88
 G8) (A4 c4- | c2 BA B4 c4) (c4 | c6 e2 d4 ^c4- | c2 d2 B4 e6) (d2 | e4 c4 d4 B4 | %93
 c2 B2 B2 AG A8- | A4) (d8 A4 | c12 B4- | B2 A2 B2 G2 A4 F4- | F2) E2 c6 B2 (B2 AG | A4 A4 G8) | %99
 (B8 c6 e2 | d4 ^c6 (d2 B4 | e6)) (d2 e4 c4 | d4 B4 c2 B2 B2 AG | A12) (d4- | d4 A4 c8- | %105
 c4 B6 A2!mf!!>(! (B2 G2 | A4 F6 E2) c4- | c2 B2 B2 AG A4 A4 |!p! !fermata!G12)!>)! x4 |] %109
V:3
 z16 |!p! (G,16 | F,8 G,8 | C8) (B,6 C2 | D8 G,8) | z4!mp! (G,4 B,4 G,4 | D6 C2 B,2 A,2 G,2 F,2 | %7
 E,6 F,2 G,4 D,4 | A,8) z4!mf! (B,4 | D6 D2 ^C4 D4 | E4 C4 B,8 | B,4) (B,4 A,4 B,4 | C4 A,4) z8 | %13
 z4 (E4 D2 C2 B,2 A,2 | B,2 C2 D4 ^C4 D4- | D2) (D2 B,4 A,4 C4- | C2 B,2 A,4 G,8) | z16 | z8 (D8 | %19
 E8 C8 | =F6 E2 D2 A,2 C4 | D4 B,4 A,8) | z8 (B,8 | E6 D2 C2 B,2 C4- | C4 A,4 E8) | z4 (E4 C4 A,4 | %26
 E4 E,4) (E,2 F,2 G,2 A,2 | B,2 C2 D4 B,8) | z16 | z16 | z16 | z16 | z8 z8 | z4 (C8 C4 | %34
 C6 C2 B,4 C4- | C2 D2 E4 C4 G,4- | G,2) (A,2 B,2 C2 D6 C2 | B,8 A,8) | z4 (E6 E2 D4 | C8 B,8) | %40
 z4 (A,4 E4 B,4 | D8 ^C4 D4 | D4 E6 D2 C2 B,2 | A,4 G,4) z8 | z4 (G,4 D4 A,4 | C8 B,4 C4 | %46
 G,4) (D6 CB, A,2 B,2 | C2 D2 E6 D2 C2 B,2 | A,8) (E8 | D8) z4 G,4- | G,4 (.G,4 .G,4 .G,4) | %51
 E,8 (E6 D2 | C6 B,2 A,6 G,2 |!>(! =F,4 F,4 E,8 |!mp! A,12)!>)! x4 || z16 | z16 |!mf! A,16 | A,16 | %59
 z16 | z8 D8- | D8 D8- | D8 (E8- | E4 E4 D4 B,4 | D16) | (E8 C8 | B,8) z4 (A,4 | B,8 E8 | %68
 A,4 C4 B,8) | z4 (C8 C4 | B,4 E4 D4 G,4 | D4) (.E4 .E4 .E4) | (D4 G,4) z4 (G,4- | %73
 G,4 G,4 F,4 B,4 | A,4 G,4 C6 C2 | B,4) (B,4 G,2 A,2 B,2 G,2 | C6 B,2 A,2 G,2 A,4 | %77
 G,4 E,4 A,6 ^G,2 | A,4) (E6 D2 E4 | C6 D2 E4 D4 | ^C4 D4 B,8) | z4 (G,8 G,4 | E,4 E,4 C8 | %83
 G,8) z4 (G,2 A,2 | B,2 C2 D2 B,2 C6 D2 | E2 F2 G4 D8) | z4 (G,2 A,2 B,2 C2 D2 B,2 | %87
 C2 D2 E6 D2 C2 B,A, | G,4 B,4 A,4 E,4) | z8 (E8 | C6 G,2 D4 E4- | E2) (A,2 D4 G,6 F,2 | %92
 G,4) (C8 D4 | B,8 A,8- | A,8) z8 | (E8 B,8 | D6 CB, A,6 G,F, | E,8 B,8) | (A,6 A,2 D,8) | %99
 (D8 C6 G,2 | D4 E6 (A,2 D4 | G,6)) (F,2 G,4 C4- | C4 z4 (B,8) | A,16) | z8 (E8 | B,8 D6 CB, | %106
 A,6 G,F, E,8) |!mf!!>(! (B,8 A,6 A,2 |!p! !fermata!D,12)!>)! x4 |] %109

